X:1
T:143 - A Ceia do Senhor
T:Letra: William Edwin Entzminger (1859-1930)
T:Música: Hugh Wilson (1764-1824)
M:3/4
L:1/4
Q:1/4=115
K:Bbmaj
V:1
B | "Bb"d2c | "Gm"B2"Eb"G | "Bb"F2"Eb"G | "Bb"B2"F"c | "Bb"d2"F"c | ("Bb"df)d | "F"c2c | "Bb"d2"F"c | "Bb"B2"Gm"G | "Bb"F2"Gm"D | "F"F2c | ("Bb"df)d | ("F7"c>B) c | "Bb"HB2 |]
w: 1.~Se-rá pos-sí-vel es-que-cer O teu a-mor,_ Se-nhor? A tu-a gra-çaem con-ce-der Per-dão_ ao pe_ca-dor?
w: 2.~Se-rá pos-sí-vel es-que-cer O teu so-frer,_ Se-nhor? A vi-da que vi-es-te ter, Vi-vi_daem tan_ta dor?
w: 3.~Se-rá pos-sí-vel es-que-cer A gran-de sal_va-ção Que Tu vi-es-te nos tra-zer, Que mu_dao co_ra-ção?
w: 4.~Nós va-mos ho-je ce-le-brar, Em san-ta co_mu-nhão, O teu so-frer, o teu pe-nar, Sim, nos_sa re_den-ção.
W: 
W:
W: 1. Será possível esquecer
W: O teu amor, Senhor?
W: A tua graça em conceder
W: Perdão ao pecador?
W: 
W: 2. Será possível esquecer
W: O teu sofrer, Senhor?
W: A vida que vieste ter,
W: Vivida em tanta dor?
W: 
W:
W:
W: 3. Será possível esquecer
W: A grande salvação
W: Que Tu vieste nos trazer,
W: Que muda o coração?
W: 
W: 4. Nós vamos hoje celebrar,
W: Em santa comunhão,
W: O teu sofrer, o teu penar,
W: Sim, nossa redenção.
W:         
W: 





